neru-dark-classic/22x22/panel/dino-status-away.svg

<svg xmlns="http://www.w3.org/2000/svg" width="22" height="22" version="1.1">
 <defs>
  <style id="current-color-scheme" type="text/css">
   .ColorScheme-Text { color:#d3dae3; } .ColorScheme-Highlight { color:#5294e2; }
  </style>
 </defs>
 <path style="fill:currentColor" class="ColorScheme-Text" d="M 11 3 A 8 8 0 0 0 3 11 A 8 8 0 0 0 11 19 A 8 8 0 0 0 19 11 A 8 8 0 0 0 11 3 z M 10.875 5 L 11.125 5 C 11.60975 5 12 5.39025 12 5.875 L 12 10 L 16.125 10 C 16.60975 10 17 10.39025 17 10.875 L 17 11.125 C 17 11.60975 16.60975 12 16.125 12 L 11.125 12 L 10.875 12 C 10.39025 12 10 11.60975 10 11.125 L 10 10.875 L 10 5.875 C 10 5.39025 10.39025 5 10.875 5 z"/>
</svg>

<svg xmlns="http://www.w3.org/2000/svg" width="22" height="22"><defs><style id="current-color-scheme" type="text/css"></style></defs><path d="M11 3a8 8 0 0 0-8 8 8 8 0 0 0 8 8 8 8 0 0 0 8-8 8 8 0 0 0-8-8zm-.125 2h.25c.485 0 .875.39.875.875V10h4.125c.485 0 .875.39.875.875v.25c0 .485-.39.875-.875.875h-5.25a.873.873 0 0 1-.875-.875v-5.25c0-.485.39-.875.875-.875z" fill="currentColor" color="#d3dae3"/></svg>
